!!!!SEGMENT: pl-cz--ii-16--001-005_szlagorski-walenty--tance-walc-5.krn
!!!cenid: 18xx:1069
!!!COM: Szlagórski, Walenty
!!!COM-rismID: pe30111815
!!!CDT: 1801-1863/07/16
!!!CNT: Polish
!!!GTL: Tańce
!!!OTL: Walc 5
!!!OMV: 005
!!!PDT:
!!!AGN: Secular; Waltz
!!!YEC: Copyright 2022 Narodowy Instytut Fryderyka Chopina (https://polishscores.org)
!!!YEM: License CC-BY-4.0 (https://creativecommons.org/licenses/by/4.0)
!!!SMS-siglum: PL-CZ
!!!SMS-shelfmark: II-16
!!!SMS-shelfwork: 001-005 G
!!!SMS-variant:
!!!SMS-altvar:
!!!NIFC-rismSourceID: 300001293
!!!NIFC-rismChildID: 300001298
!!!NIFC-islandoraID: pl-cz:32636
!!!URL-pdf-islandora: https://repozytorium.nifc.pl/islandora/object/pl-cz%3A32636/datastream/PDF/view
!!!URL-scan: https://polish.musicsources.pl/pl/lokalizacje/galeria/rekopisy/6770/1 @EN{Scan on Polish Music Sources Website} @PL{Skany w portalu Dziedzictwo Muzyki Polskiej w otwartym dostępie}
!!!IIIF:
!!!ONB-nifc: UWAGA: zbiór zawiera Walce nr 1-5, Galop, Mazury nr 1-4
!!!AIN: 1 cbass 2 clars 1 clrno 2 cor 1 flt 2 violn
!!!key: G
**kern	**dynam	**kern	**dynam	**kern	**dynam	**kern	**dynam	**kern	**dynam	**kern	**dynam	**kern	**dynam	**kern	**dynam	**kern	**dynam
*part9	*part9	*part8	*part8	*part7	*part7	*part6	*part6	*part5	*part5	*part4	*part4	*part3	*part3	*part2	*part2	*part1	*part1
*staff9	*	*staff8	*	*staff7	*	*staff6	*	*staff5	*	*staff4	*	*staff3	*	*staff2	*	*staff1	*
*>[A,A,B,B,A]	*	*>[A,A,B,B,A]	*	*>[A,A,B,B,A]	*	*>[A,A,B,B,A]	*	*>[A,A,B,B,A]	*	*>[A,A,B,B,A]	*	*>[A,A,B,B,A]	*	*>[A,A,B,B,A]	*	*>[A,A,B,B,A]	*
*>A	*	*>A	*	*>A	*	*>A	*	*>A	*	*>A	*	*>A	*	*>A	*	*>A	*
*I"Baſso	*	*I"Violino 2.do	*	*I"Violino 1mo	*	*I"Clarino in D.	*	*I"Corno 2do in D.	*	*I"Corno 1mo in D.	*	*I"Clarinetto 2do in A.	*	*I"Clarinetto 1mo in A.	*	*I"Flauto	*
*mI"Contrabbasso	*	*mI"Violino II	*	*mI"Violino I	*	*mI"Clarino in G	*	*mI"Corno II in D	*	*mI"Corno I in D	*	*mI"Clarinetto II in A	*	*mI"Clarinetto I inA	*	*	*
*I'b	*	*I'vl 2	*	*I'vl 1	*	*I'clno in D	*	*I'cor 2 in D	*	*I'cor 1 in D	*	*I'cl 2 in A	*	*I'cl 1 in A	*	*I'fl	*
*mI'cb	*	*	*	*	*	*mI'clno in G	*	*	*	*	*	*	*	*	*	*	*
*Icbass	*	*Ivioln	*	*Ivioln	*	*Iclrno	*	*Icor	*	*Icor	*	*Iclars	*	*Iclars	*	*Iflt	*
*ICstr	*	*ICstr	*	*ICstr	*	*ICbras	*	*ICbras	*	*ICbras	*	*ICww	*	*ICww	*	*ICww	*
*	*	*	*	*	*	*IGsolo	*	*	*	*	*	*	*	*	*	*	*
*clefF4	*	*clefG2	*	*clefG2	*	*clefG2	*	*clefG2	*	*clefG2	*	*clefG2	*	*clefG2	*	*clefG2	*
*	*	*	*	*	*	*ITrd-4c-7	*	*ITrd6c10	*	*ITrd6c10	*	*ITrd2c3	*	*ITrd2c3	*	*	*
*k[f#c#]	*	*k[f#]	*	*k[f#]	*	*k[f#]	*	*k[f#c#]	*	*k[f#c#]	*	*k[f#]	*	*k[f#]	*	*k[f#]	*
*mk[f#]	*	*	*	*	*	*	*	*	*	*	*	*	*	*	*	*	*
*G:	*	*G:	*	*G:	*	*G:	*	*G:	*	*G:	*	*G:	*	*G:	*	*G:	*
*M3/4	*	*M3/4	*	*M3/4	*	*M3/4	*	*M3/4	*	*M3/4	*	*M3/4	*	*M3/4	*	*M3/4	*
=1	=1	=1	=1	=1	=1	=1	=1	=1	=1	=1	=1	=1	=1	=1	=1	=1	=1
!	!LO:MO:mod=!LO&colon;DY&colon;ed=brack	!	!	!	!	!	!	!	!	!	!	!	!	!	!	!	!
!	!null	!	!	!	!	!	!	!	!	!LO:N:vis=00	!	!LO:N:vis=00	!	!LO:N:vis=00	!	!LO:N:vis=00	!
!	!LO:MO:null:mod=p	!	!	!LO:TX:t=P:problem=powyżej partii Violino 1mo pięciolinia z pomocniczo zapisaną partią Trąbka	!	!LO:TX:a:mod= :t=in G.	!LO:DY:rj	!LO:TX:a:mod= :t=16	!	!LO:TX:a:mod= :t=16	!	!LO:TX:a:mod= :t=8	!	!LO:TX:a:mod= :t=8	!	!LO:TX:a:mod= :t=16	!
4G\	.	4r	.	4r	.	2.d/	p	2.r	.	0.r	.	0.r	.	0.r	.	0.r	.
!	!	!	!LO:MO:mod=!LO&colon;DY&colon;ed=brack	!	!LO:MO:mod=!LO&colon;DY&colon;ed=brack	!	!	!	!	!	!	!	!	!	!	!	!
!	!	!	!null	!	!null	!	!	!	!	!	!	!	!	!	!	!	!
!	!	!	!LO:MO:null:mod=p	!	!LO:MO:null:mod=p	!	!	!	!	!	!	!	!	!	!	!	!
4r	.	4d 4B/	.	4g/	.	.	.	.	.	.	.	.	.	.	.	.	.
4r	.	4d 4B/	.	4g/	.	.	.	.	.	.	.	.	.	.	.	.	.
=2	=2	=2	=2	=2	=2	=2	=2	=2	=2	=2	=2	=2	=2	=2	=2	=2	=2
4G\	.	4r	.	4r	.	2g/	.	2.r	.	.	.	.	.	.	.	.	.
4r	.	4d 4B/	.	4g/	.	.	.	.	.	.	.	.	.	.	.	.	.
4r	.	4d 4B/	.	4g/	.	4b/	.	.	.	.	.	.	.	.	.	.	.
=3	=3	=3	=3	=3	=3	=3	=3	=3	=3	=3	=3	=3	=3	=3	=3	=3	=3
*	*	*rep	*	*	*	*	*	*	*	*	*	*	*	*	*	*	*
4G\	.	4r	.	4r	.	4d/	.	2.r	.	.	.	.	.	.	.	.	.
4r	.	4d 4B/	.	4g/	.	4g/	.	.	.	.	.	.	.	.	.	.	.
4r	.	4d 4B/	.	4g/	.	4b/	.	.	.	.	.	.	.	.	.	.	.
*	*	*Xrep	*	*	*	*	*	*	*	*	*	*	*	*	*	*	*
=4	=4	=4	=4	=4	=4	=4	=4	=4	=4	=4	=4	=4	=4	=4	=4	=4	=4
*	*	*rep	*	*	*	*	*	*	*	*	*	*	*	*	*	*	*
4G\	.	4r	.	4r	.	2.dd^/	.	2.r	.	.	.	.	.	.	.	.	.
4r	.	4d 4B/	.	4g/	.	.	.	.	.	.	.	.	.	.	.	.	.
4r	.	4d 4B/	.	4g/	.	.	.	.	.	.	.	.	.	.	.	.	.
*	*	*Xrep	*	*	*	*	*	*	*	*	*	*	*	*	*	*	*
=5	=5	=5	=5	=5	=5	=5	=5	=5	=5	=5	=5	=5	=5	=5	=5	=5	=5
*	*	*rep	*	*	*	*	*	*	*	*	*	*	*	*	*	*	*
!	!	!	!	!	!	!	!	!	!	!LO:N:vis=00	!	!LO:N:vis=00	!	!LO:N:vis=00	!	!LO:N:vis=00	!
4G\	.	4r	.	4r	.	2ee/	.	2.r	.	0.r	.	0.r	.	0.r	.	0.r	.
4r	.	4d 4B/	.	4g/	.	.	.	.	.	.	.	.	.	.	.	.	.
4r	.	4d 4B/	.	4g/	.	4dd/	.	.	.	.	.	.	.	.	.	.	.
*	*	*Xrep	*	*	*	*	*	*	*	*	*	*	*	*	*	*	*
=6	=6	=6	=6	=6	=6	=6	=6	=6	=6	=6	=6	=6	=6	=6	=6	=6	=6
*	*	*rep	*	*	*	*	*	*	*	*	*	*	*	*	*	*	*
4G\	.	4r	.	4r	.	8b/L	.	2.r	.	.	.	.	.	.	.	.	.
.	.	.	.	.	.	8dd/J	.	.	.	.	.	.	.	.	.	.	.
4r	.	4d 4B/	.	4g/	.	4g/	.	.	.	.	.	.	.	.	.	.	.
4r	.	4d 4B/	.	4g/	.	8b/L	.	.	.	.	.	.	.	.	.	.	.
.	.	.	.	.	.	8dd/J	.	.	.	.	.	.	.	.	.	.	.
*	*	*Xrep	*	*	*	*	*	*	*	*	*	*	*	*	*	*	*
=7	=7	=7	=7	=7	=7	=7	=7	=7	=7	=7	=7	=7	=7	=7	=7	=7	=7
4D\	.	4r	.	4r	.	2.d/	.	2.r	.	.	.	.	.	.	.	.	.
!	!	!LO:SIC:o=4d 4cn/	!	!	!	!	!	!	!	!	!	!	!	!	!	!	!
4d\	.	4d 4c	.	4f#/	.	.	.	.	.	.	.	.	.	.	.	.	.
4r	.	4d 4c/	.	4f#/	.	.	.	.	.	.	.	.	.	.	.	.	.
!	!	!	!	!	!	!LO:LB:g=original	!	!	!	!	!	!	!	!	!	!	!
=8	=8	=8	=8	=8	=8	=8	=8	=8	=8	=8	=8	=8	=8	=8	=8	=8	=8
*	*	*rep	*	*	*	*	*	*	*	*	*	*	*	*	*	*	*
!LO:TX:t=P:problem=brak taktu nr 8	!	!	!	!	!	!	!	!	!	!	!	!	!	!	!	!	!
2.ryy	.	4r	.	4r	.	4dd/	.	2.r	.	.	.	.	.	.	.	.	.
.	.	4d 4c/	.	4f#/	.	4r	.	.	.	.	.	.	.	.	.	.	.
.	.	4d 4c/	.	4f#/	.	4d/	.	.	.	.	.	.	.	.	.	.	.
*	*	*Xrep	*	*	*	*	*	*	*	*	*	*	*	*	*	*	*
=9	=9	=9	=9	=9	=9	=9	=9	=9	=9	=9	=9	=9	=9	=9	=9	=9	=9
*	*	*	*	*	*	*	*	*	*	*	*	*	*	*2\right	*	*	*
!	!	!	!	!	!	!	!	!	!	!LO:N:vis=00	!	!	!LO:DY:rj	!	!	!LO:N:vis=00	!
4G\	.	4r	.	4r	.	2.d/	.	2.r	.	0.r	.	2.B/	p	2.g\	p	0.r	.
4r	.	4d 4B/	.	4g/	.	.	.	.	.	.	.	.	.	.	.	.	.
4r	.	4d 4B/	.	4g/	.	.	.	.	.	.	.	.	.	.	.	.	.
!	!	!	!	!LO:LB:g=original	!	!	!	!	!	!	!	!	!	!	!	!	!
=10	=10	=10	=10	=10	=10	=10	=10	=10	=10	=10	=10	=10	=10	=10	=10	=10	=10
*	*	*rep	*	*	*	*	*	*	*	*	*	*	*	*	*	*	*
4G\	.	4r	.	4r	.	2g/	.	2.r	.	.	.	2.B/	.	2.g\	.	.	.
4r	.	4d 4B/	.	4g/	.	.	.	.	.	.	.	.	.	.	.	.	.
4r	.	4d 4B/	.	4g/	.	4b/	.	.	.	.	.	.	.	.	.	.	.
*	*	*Xrep	*	*	*	*	*	*	*	*	*	*	*	*	*	*	*
=11	=11	=11	=11	=11	=11	=11	=11	=11	=11	=11	=11	=11	=11	=11	=11	=11	=11
*	*	*rep	*	*	*	*	*	*	*	*	*	*	*	*	*	*	*
4G\	.	4r	.	4r	.	4d/	.	2.r	.	.	.	4B/	.	4g\	.	.	.
4r	.	4d 4B/	.	4g/	.	4g/	.	.	.	.	.	4B/	.	4g\	.	.	.
4r	.	4d 4B/	.	4g/	.	4b/	.	.	.	.	.	4B/	.	4g\	.	.	.
*	*	*Xrep	*	*	*	*	*	*	*	*	*	*	*	*	*	*	*
=12	=12	=12	=12	=12	=12	=12	=12	=12	=12	=12	=12	=12	=12	=12	=12	=12	=12
*	*	*rep	*	*	*	*	*	*	*	*	*	*	*	*	*	*	*
!	!	!	!	!	!	!LO:SIC:o=2.dd/	!	!	!	!	!	!	!	!	!	!	!
4G\	.	4r	.	4r	.	2.dd^	.	2.r	.	.	.	2B/	.	2g\	.	.	.
4r	.	4d 4B/	.	4g/	.	.	.	.	.	.	.	.	.	.	.	.	.
4r	.	4d 4B/	.	4g/	.	.	.	.	.	.	.	4r	.	4r	.	.	.
*	*	*Xrep	*	*	*	*	*	*	*	*	*	*	*	*	*	*	*
=13	=13	=13	=13	=13	=13	=13	=13	=13	=13	=13	=13	=13	=13	=13	=13	=13	=13
*	*	*rep	*	*	*	*	*	*	*	*	*	*	*	*	*	*	*
!	!	!	!	!	!	!	!	!	!	!LO:N:vis=00	!	!	!	!	!	!LO:N:vis=00	!
4G\	.	4r	.	4r	.	2ee/	.	2.r	.	0.r	.	2.B/	.	2.g\	.	0.r	.
4r	.	4d 4B/	.	4g/	.	.	.	.	.	.	.	.	.	.	.	.	.
4r	.	4d 4B/	.	4g/	.	4dd/	.	.	.	.	.	.	.	.	.	.	.
*	*	*Xrep	*	*	*	*	*	*	*	*	*	*	*	*	*	*	*
=14	=14	=14	=14	=14	=14	=14	=14	=14	=14	=14	=14	=14	=14	=14	=14	=14	=14
*	*	*rep	*	*	*	*	*	*	*	*	*	*	*	*	*	*	*
4G\	.	4r	.	4r	.	8b/L	.	2.r	.	.	.	2.B/	.	2.g\	.	.	.
.	.	.	.	.	.	8dd/J	.	.	.	.	.	.	.	.	.	.	.
4r	.	4d 4B/	.	4g/	.	4g/	.	.	.	.	.	.	.	.	.	.	.
4r	.	4d 4B/	.	4g/	.	8b/L	.	.	.	.	.	.	.	.	.	.	.
.	.	.	.	.	.	8dd/J	.	.	.	.	.	.	.	.	.	.	.
*	*	*Xrep	*	*	*	*	*	*	*	*	*	*	*	*	*	*	*
!	!	!LO:LB:g=original	!	!	!	!	!	!	!	!	!	!	!	!	!	!	!
=15	=15	=15	=15	=15	=15	=15	=15	=15	=15	=15	=15	=15	=15	=15	=15	=15	=15
!	!	!	!	!	!	!	!	!	!	!	!	!LO:SIC:o=4cnX/	!	!	!	!	!
4D\	.	4r	.	4r	.	4d/	.	2.r	.	.	.	4c	.	4f#/	.	.	.
4r	.	4d 4c/	.	4f#/	.	8dd/L	.	.	.	.	.	4c/	.	4f#/	.	.	.
.	.	.	.	.	.	8dd/J	.	.	.	.	.	.	.	.	.	.	.
4r	.	4d 4c/	.	4f#/	.	4dd/	.	.	.	.	.	4c/	.	4f#/	.	.	.
!LO:LB:g=original	!	!	!	!	!	!	!	!	!	!	!	!	!	!	!	!	!
=16	=16	=16	=16	=16	=16	=16	=16	=16	=16	=16	=16	=16	=16	=16	=16	=16	=16
4G\	.	4d 4B/	.	4g/	.	2g/	.	2.r	.	.	.	2B/	.	2g\	.	.	.
4GG/	.	4d 4B/	.	4g/	.	.	.	.	.	.	.	.	.	.	.	.	.
4r	.	4r	.	4r	.	4r	.	.	.	.	.	4r	.	4r	.	.	.
!!LO:TX:a:i:rj:t= :mod=Fine
!LO:TX:a:i:rj:mod= :t=Fine	!	!LO:TX:a:i:rj:mod= :t=Fine	!	!	!	!LO:TX:a:i:rj:mod= :t=Fine	!	!LO:TX:a:i:rj:mod= :t=Fine	!	!LO:TX:a:i:rj:mod= :t=Fine	!	!LO:TX:a:i:rj:mod= :t=Fine	!	!	!	!LO:TX:a:i:rj:mod= :t=Fine	!
!	!	!	!	!LO:LB:g=original	!	!	!	!	!	!	!	!LO:LB:g=original	!	!LO:LB:g=original	!	!	!
!LO:MO:mod==17&colon;|!|&colon;	!	!LO:MO:mod==17&colon;|!|&colon;	!	!LO:MO:mod==17&colon;|!|&colon;	!LO:MO:mod==17&colon;|!|&colon;	!LO:MO:mod==17&colon;|!|&colon;	!LO:MO:mod==17&colon;|!|&colon;	!LO:MO:mod==17&colon;|!|&colon;	!	!LO:MO:mod==17&colon;|!|&colon;	!	!LO:MO:mod==17&colon;|!|&colon;	!LO:MO:mod==17&colon;|!|&colon;	!LO:MO:mod==17&colon;|!|&colon;	!LO:MO:mod==17&colon;|!|&colon;	!LO:MO:mod==17&colon;|!|&colon;	!
=17:|!|:;	=17:|!|:;	=17:|!|:;	=17:|!|:;	=17:|!|:	=17:|!|:	=17:|!|:;	=17:|!|:	=17:|!|:;	=17:|!|:;	=17:|!|:;	=17:|!|:;	=17:|!|:;	=17:|!|:	=17:|!|:	=17:|!|:	=17:|!|:;	=17:|!|:;
*>B	*	*>B	*	*>B	*	*>B	*	*>B	*	*>B	*	*>B	*	*>B	*	*>B	*
!	!LO:MO:mod=!LO&colon;DY&colon;ed=brack	!	!	!	!	!	!	!	!	!	!	!	!	!	!	!	!LO:MO:mod=!LO&colon;DY&colon;ed=brack
!	!null	!	!	!	!	!LO:N:vis=00	!	!	!	!	!	!	!	!	!	!	!null
!	!LO:MO:null:mod=f	!	!	!	!	!LO:TX:a:mod= :t=8	!	!	!	!	!	!	!LO:MO:mod=f	!	!LO:MO:mod=f	!	!LO:MO:null:mod=f
4D\	.	4r	.	4dd\	f	0.r	.	4r	.	4r	.	2.f#/	ff	2.dd\	ff	4ddd\	.
!	!	!	!LO:MO:mod=!LO&colon;DY&colon;ed=brack	!	!	!	!	!	!LO:MO:mod=!LO&colon;DY&colon;ed=brack	!	!LO:MO:mod=!LO&colon;DY&colon;ed=brack	!	!	!	!	!	!
!	!	!	!null	!	!	!	!	!	!null	!	!null	!	!	!	!	!	!
!	!	!	!LO:MO:null:mod=f	!	!	!	!	!	!LO:MO:null:mod=f	!	!LO:MO:null:mod=f	!	!	!	!	!	!
4r	.	4a 4f#/	.	8a\L	.	.	.	4F#/	.	4d\	.	.	.	.	.	8aa\L	.
.	.	.	.	8dd\J	.	.	.	.	.	.	.	.	.	.	.	8ddd\J	.
4r	.	4a 4f#/	.	4ff#\	.	.	.	4F#/	.	4d\	.	.	.	.	.	4ddd\	.
=18	=18	=18	=18	=18	=18	=18	=18	=18	=18	=18	=18	=18	=18	=18	=18	=18	=18
*	*	*	*	*2\right	*	*	*	*	*	*2\right	*	*	*	*	*	*2\right	*
4AA/	.	4r	.	2aa\	.	.	.	2.A/	.	2.e\	.	2.g/	.	2.cc#\	.	2aaa\	.
4r	.	4a 4g/	.	.	.	.	.	.	.	.	.	.	.	.	.	.	.
4r	.	4a 4g/	.	4aa\	.	.	.	.	.	.	.	.	.	.	.	4aa\	.
=19	=19	=19	=19	=19	=19	=19	=19	=19	=19	=19	=19	=19	=19	=19	=19	=19	=19
!	!	!	!	!	!	!	!	!	!	!	!	!	!	!LO:SIC:v:o=4cc\	!	!	!
4AA/	.	4r	.	4aa\	.	.	.	4A/	.	4e\	.	4g\	.	4cc#	.	4aa\	.
!	!	!	!	!LO:SIC:v:o=4ccc\	!	!	!	!	!	!	!	!	!	!LO:SIC:v:o=4cc\	!	!LO:SIC:v:o=4ccc\	!
4A\	.	4a 4g/	.	4ccc#	.	.	.	4A/	.	4e\	.	4g\	.	4cc#	.	4ccc#	.
!	!	!	!	!	!	!	!	!	!	!	!	!	!	!LO:SIC:v:o=4cc\	!	!	!
4A\	.	4a 4g/	.	4eee\	.	.	.	4A/	.	4e\	.	4g\	.	4cc#	.	4eee\	.
=20	=20	=20	=20	=20	=20	=20	=20	=20	=20	=20	=20	=20	=20	=20	=20	=20	=20
*	*	*	*	*	*	*	*	*	*	*	*	*2\right	*	*	*	*	*
4D\	.	4r	.	2fff#\	.	.	.	2A/	.	2d\	.	2a\	.	2dd\	.	2fff#\	.
4r	.	4a 4f#/	.	.	.	.	.	.	.	.	.	.	.	.	.	.	.
4r	.	4a 4f#/	.	4ddd\	.	.	.	4F#/	.	4d\	.	4f#\	.	4dd\	.	4ddd\	.
=21	=21	=21	=21	=21	=21	=21	=21	=21	=21	=21	=21	=21	=21	=21	=21	=21	=21
!	!	!	!	!	!	!LO:N:vis=00	!	!LO:TX:a:mod= :t=1	!	!LO:TX:a:mod= :t=1	!	!	!	!	!	!	!
4G\	.	4r	.	2bb\	.	0.r	.	2.r	.	2.r	.	2.e/	.	2.b\	.	2bb\	.
4r	.	4b 4e/	.	.	.	.	.	.	.	.	.	.	.	.	.	.	.
4r	.	4b 4e/	.	4eee\	.	.	.	.	.	.	.	.	.	.	.	4eee\	.
=22	=22	=22	=22	=22	=22	=22	=22	=22	=22	=22	=22	=22	=22	=22	=22	=22	=22
*	*	*	*	*	*	*	*	*2\right	*	*	*	*	*	*	*	*	*
4A\	.	4r	.	4ddd\	.	.	.	2.d\	.	2.f#\	.	2.f#/	.	2.a\	.	4ddd\	.
4r	.	4a 4f#/	.	8aa\L	.	.	.	.	.	.	.	.	.	.	.	8aa\L	.
.	.	.	.	8ff#\J	.	.	.	.	.	.	.	.	.	.	.	8ff#\J	.
4r	.	4a 4f#/	.	4dd\	.	.	.	.	.	.	.	.	.	.	.	4dd\	.
=23	=23	=23	=23	=23	=23	=23	=23	=23	=23	=23	=23	=23	=23	=23	=23	=23	=23
!	!	!	!	!	!	!	!	!	!	!	!	!	!	!LO:SIC:v:o=2cc\	!	!	!
4AA/	.	2a 2g/	.	2bb\	.	.	.	2A/	.	2e\	.	2g/	.	2cc#	.	2bb\	.
4A\	.	.	.	.	.	.	.	.	.	.	.	.	.	.	.	.	.
!	!	!	!	!	!	!	!	!	!	!	!	!	!	!LO:SIC:v:o=4cc\	!	!	!
4A\	.	4a 4g/	.	4aa\	.	.	.	4A/	.	4e\	.	4g/	.	4cc#	.	4aa\	.
!	!	!	!	!	!	!	!	!LO:LB:g=original	!	!LO:LB:g=original	!	!	!	!	!	!	!
=24	=24	=24	=24	=24	=24	=24	=24	=24	=24	=24	=24	=24	=24	=24	=24	=24	=24
4D\	.	2a 2f#/	.	2dd\	.	.	.	2F#/	.	2d\	.	2f#/	.	2dd\	.	2dd\	.
4d\	.	.	.	.	.	.	.	.	.	.	.	.	.	.	.	.	.
!	!	!	!	!	!	!	!	!	!	!	!	!LO:TX:t=P:problem=brak pauzy 4r	!	!	!	!	!
4r	.	4r	.	4r	.	.	.	4r	.	4r	.	4ryy	.	4r	.	4r	.
!!LO:TX:a:i:t= :mod=Da Capo al Fine
!LO:TX:a:i:mod= :t=Da Capo al Fine	!	!LO:TX:a:i:mod= :t=Da Capo\nal Fine	!	!LO:TX:b:i:mod= :t=Da Capo al Fine	!	!LO:TX:a:i:mod= :t=Da Capo\nal Fine	!	!LO:TX:a:i:mod= :t=Da Capo al Fine	!	!LO:TX:a:i:mod= :t=Da Capo al Fine	!	!LO:TX:a:i:mod= :t=Da Capo\nal Fine	!	!LO:TX:a:i:mod= :t=Da Capo\nal Fine	!	!LO:TX:a:i:mod= :t=Da Capo\nal Fine	!
==:|!	==:|!	==:|!	==:|!	==:|!	==:|!	==:|!	==:|!	==:|!	==:|!	==:|!	==:|!	==:|!	==:|!	==:|!	==:|!	==:|!	==:|!
*-	*-	*-	*-	*-	*-	*-	*-	*-	*-	*-	*-	*-	*-	*-	*-	*-	*-
!!!system-decoration: [(ww)][(bras)][(str)]
!!!RDF**kern: > = above
!!!RDF**kern: < = below
!!!filter-modern: shed -k -e "s/([^a-gA-Gn#X-])[<>]/$1/g" | shed -e "s/TX(.*):t=P:/tx$1:t=P:/LG; s/^(X?)rep$/$1REP/I; s/LO:N:/LO:n:$1/L;s/LO:DY(.*)(:rj)(.*)/LO:dy:$1$2$3/L; s/yy//; s/^(\d+[\/\\]right)/$1yy/I" | sic -sq | modori -m | autostem -r | tie -s
!!!ENC: Berenika Jozajtis
!!!END: 2020-10-05
!!!EED: Andrzej Kubiczek
!!!EEV: 2023-09-14
!!!ENC-modern: Andrzej Kubiczek
!!!END-modern: 2023-09-30
